Sources/FrostedUI/Resources/Icons.xcassets/dollarSign32.imageset/dollar-sign-32.svg

<svg width="32" height="32" viewBox="0 0 32 32" fill="none" xmlns="http://www.w3.org/2000/svg" data-fui-icon="true">
  <path
    d="M23.457 18.25C23.5422 18.25 23.6236 18.2859 23.6791 18.3506C23.8648 18.5671 24.0365 18.7999 24.1885 19.0537C24.7193 19.9405 25.0029 21.0151 25.0029 22.3105C25.0026 25.3331 22.3571 28.9127 17.0584 29.3267C16.8997 29.3391 16.7734 29.4703 16.7734 29.6295V31.25C16.7732 31.6638 16.4373 31.9998 16.0234 32C15.6094 32 15.2737 31.664 15.2734 31.25V29.6309C15.2734 29.4715 15.1485 29.3403 14.9896 29.3282C12.439 29.1343 10.6357 28.2311 9.38379 27.1045C7.98426 25.845 7.32402 24.3577 7.03418 23.4297C6.91077 23.0345 7.13134 22.6139 7.52637 22.4902C7.92173 22.3668 8.34233 22.5871 8.46582 22.9824C8.70361 23.7439 9.24777 24.9642 10.3867 25.9893C11.3576 26.863 12.8008 27.6274 14.9549 27.8198C15.1271 27.8352 15.2734 27.6977 15.2734 27.5249V18.55C15.2734 18.3843 15.4078 18.25 15.5734 18.25H16.4734C16.6391 18.25 16.7734 18.3843 16.7734 18.55V27.5245C16.7734 27.6975 16.9209 27.835 17.0932 27.8193C21.6111 27.4089 23.5026 24.4122 23.5029 22.3105C23.5029 21.2397 23.2706 20.441 22.9014 19.8242C22.5312 19.2058 21.9936 18.7212 21.3066 18.3262C21.2705 18.3054 21.2845 18.25 21.3262 18.25H23.457ZM16.0234 0.000976562C16.4375 0.00121164 16.7734 0.336908 16.7734 0.750977V2.36544C16.7734 2.52513 16.901 2.6566 17.0602 2.66817C22.5383 3.06598 24.6023 6.59751 24.9873 8.48828C25.0698 8.89404 24.808 9.29034 24.4023 9.37305C23.9967 9.45534 23.6003 9.19364 23.5176 8.78809C23.257 7.50763 21.7319 4.5692 17.0924 4.17509C16.9205 4.16049 16.7734 4.29773 16.7734 4.47024V14.95C16.7734 15.1157 16.9078 15.25 17.0734 15.25H31.25C31.6642 15.25 32 15.5858 32 16C32 16.4142 31.6642 16.75 31.25 16.75H0.75C0.335786 16.75 0 16.4142 0 16C0 15.5858 0.335786 15.25 0.75 15.25H9.92253C10.0672 15.25 10.1157 15.0467 9.99023 14.9746C9.13438 14.4824 8.3863 13.8322 7.85645 12.9473C7.32567 12.0607 7.04306 10.9856 7.04297 9.69043C7.04297 6.66806 9.69249 3.08718 14.9886 2.67148C15.1473 2.65903 15.2734 2.52785 15.2734 2.36868V0.750977C15.2734 0.336763 15.6092 0.000976562 16.0234 0.000976562ZM15.2734 4.47363C15.2734 4.30058 15.1259 4.16312 14.9536 4.17885C10.4374 4.5911 8.54297 7.59002 8.54297 9.69043C8.54306 10.7609 8.77436 11.5601 9.14355 12.1768C9.5137 12.7949 10.0516 13.2789 10.7383 13.6738C11.8637 14.321 13.3128 14.6883 14.9152 15.015C15.1005 15.0527 15.2734 14.9107 15.2734 14.7216V4.47363Z"
    fill="currentColor"
  />
</svg>

<svg xmlns="http://www.w3.org/2000/svg" width="32" height="32" fill="none" data-fui-icon="true" viewBox="0 0 32 32"><path fill="currentColor" d="M23.457 18.25c.085 0 .167.036.222.1q.28.324.51.704c.53.887.814 1.961.814 3.257 0 3.022-2.646 6.602-7.945 7.016a.307.307 0 0 0-.285.302v1.621a.75.75 0 0 1-1.5 0v-1.62c0-.159-.124-.29-.283-.302-2.551-.194-4.354-1.097-5.606-2.223a8.34 8.34 0 0 1-2.35-3.675.75.75 0 0 1 1.432-.448 6.84 6.84 0 0 0 1.92 3.007c.972.874 2.415 1.638 4.569 1.83a.294.294 0 0 0 .318-.294V18.55a.3.3 0 0 1 .3-.3h.9a.3.3 0 0 1 .3.3v8.974c0 .174.148.311.32.295 4.518-.41 6.41-3.407 6.41-5.508 0-1.071-.232-1.87-.602-2.487-.37-.618-.907-1.103-1.594-1.498-.037-.02-.022-.076.02-.076zM16.023.001a.75.75 0 0 1 .75.75v1.614c0 .16.128.292.287.303 5.478.398 7.542 3.93 7.927 5.82a.75.75 0 0 1-1.47.3c-.26-1.28-1.785-4.219-6.425-4.613a.295.295 0 0 0-.319.295v10.48a.3.3 0 0 0 .3.3H31.25a.75.75 0 0 1 0 1.5H.75a.75.75 0 0 1 0-1.5h9.173c.144 0 .193-.203.067-.275-.856-.493-1.604-1.143-2.134-2.028-.53-.886-.813-1.961-.813-3.257 0-3.022 2.65-6.603 7.946-7.019a.307.307 0 0 0 .284-.302V.75a.75.75 0 0 1 .75-.75m-.75 4.473a.295.295 0 0 0-.32-.295c-4.516.412-6.41 3.411-6.41 5.511 0 1.07.231 1.87.6 2.487.37.618.909 1.102 1.595 1.497 1.126.647 2.575 1.014 4.177 1.341a.3.3 0 0 0 .358-.293z"/></svg>
